X: 1
T:Dionne Reel
M:4/4
L:1/8
R:Reel
K:D
B | Adfd gdfd | Adfd edcB | Adfd gdfd | egec d2 cB :|!/
afbf afde | f2 ed bcdf | afbf afde | f2 ec d2 fg :|!/
Adfd gdfd | Adfd edcB | Adfd gdfd | egec d2 cB:|!/
afbf afde | f=fed Bcdf | afbf afde | f2 ec d2 fg :|!/
B2 AG B2 AG | _BBAG EFGA | B2 AG B2 AG | FBDF G4 :|!/
2FA DAFD | G2 BD G2 3B=cB| Acef gece | defg abaf | D2 FA dAFD | G2 Bd g2
 3fgf |
Acef gedA | dfec d2 cB | D2 FA dAFA | D2 Bd g2 3fgf | Acef gedA | 3ded 3
cdc 3BcB 3ABA |
D2 FA dAFA | D2 BG =c2 3B=cB | Acef gedA | dfec defg |
a fd adfd | g2 e=c g=ce=c | a2 fd adfd | gece defg :|
